X:1
T:Iniqua gelosia
T:Iniqua gelosia
T:Raffaello Rontani
T:Source : Le varie Musiche a uno e due voci---Roma---G.B.Robletti---1622. Editor : André Vierendeels (05/05/16)
T:Notes : Original clefs : C1, F4 Editorial accidentals above the staff
T:©
T:©
T:©
C:Raffaello Rontani
Z:©
%%score 1 2
L:1/8
Q:1/4=84
M:4/4
K:F
V:1 treble nm="Soprano" snm="S"
V:2 bass nm="BC" snm="BC"
V:1
 G2 B3 AcB | A4 A2 d2- | d2 c4 B2- | B2 AG A4 :: f4 _e4 | d4 c3 B | B2 F2 G<F G<A | B3 c c4 | %8
w: I- ni- qua ge- lo-|si- a, ne-|* mi- ca'em-|* pia d'a- mor,|tu can-|gia- st'in do-|lor la gio- * * *|* ia mi-|
w: O crud' as- pe d'a-|ver- no, tu|* mai fe-|* ri- to'il sen,|e can-|gia- to'in ve-|len la gio- * * *|* ia mi-|
w: Nel fo- to ti na-|sce- sti, e|* sei tut-|* ta di giel,|tu can-|g'in al- pro|fiel la gio- * * *|* ia mi-|
w: Nel cre- der tal t'af-|fan- ni, co-|sa che an-|* cor non è,|e quel|mer- ca fè|cre- di bu- * * *|* * gi-|
 B4 B4 | A4 G4 | F3 E E4 | D4 _e4 | d4 c4 | B3 A A4 | G8 | f4 _e/d/c/B/ c/B/A/G/ | FG/A/ B2 c3 B | %17
w: a, i-|ni- qua|ge- lo- si-|a, i|ni- qua|ge- lo- si-|a,|tu can- * * * gia- * * *|* * * * st'in do-|
w: a, *|||||||||
w: a, *|||||||||
w: a, *|||||||||
 B2 F2 G/A/B/c/ A/B/c/d/ | Bc/d/ eB B3 A- | B4 B4 | A3 B/A/ G2 A/G/F/E/ | F/D/E/F/ G/F/G/F/ E4 | %22
w: lor la gio- * * * * * * *|* * * * a mi- a,\_-|\_ i-|ni- qua- * \_ ge- * * *|lo- * * * * * * * si-|
w: |||||
w: |||||
w: |||||
 D4 z2 _e2 |"^b" d3 e/d/ c2 d/c/B/A/ | B/G/A/B/ c/B/c/B/ A4 | G8 :| %26
w: a- i-|ni- qua- * * ge- * * *|lo- * * * * * * * si-|a.|
w: ||||
w: ||||
w: ||||
V:2
 G,,8 | D,8 | E,2 ^F,2 G,2 D,2 | C,2 _E,2 D,4 :: B,2 F,2 G,2 A,2 | B,2 D,2 E,2 ^F,2 | %6
 G,2 D,2 _E,2 F,2 | G,2 _E,2 F,4 | B,,2 C,2 D,2 E,2 | F,2 A,,2 =B,,2 C,2 | D,2 G,,2 A,,4 | %11
 D,2 ^F,2 G,2 A,2 | B,2 D,2 E,2 ^F,2 | G,2 C,2 D,4 | G,,8 |"^b" B,2 F,2 G,2 A,2 | %16
 B,2 D,2 E,2 ^F,2 | G,2 D,2 _E,2 F,2 | G,2 _E,2 F,4 | B,,2 C,2 D,2 E,2 | F,2 A,,2 =B,,2 C,2 | %21
 D,2 G,,2 A,,4 | D,2 ^F,2 G,2 A,2 |"^-natural" B,2 D,2 E,2 ^F,2 | G,2 C,2 D,4 | G,,8 :| %26

